X: 37320
T: Skye Dance
R: reel
M: 4/4
K: Gminor
K:Bb
|:B2 fe dfcB|Bccc defg|B2 fe dfcB|1 Bccc dBBB:|2 Bccc dB (3def||
|:b2 fe d2 cB|BBfB (3cde fB|b2 fe d2 cB|1 Bccc dB (3def:|2 Bccc dBBB||

